X: 1
%%NRChange 2026-04-16
T: 1814
N: Nedtecknad efter en inspelning av Bordunverkstan. Utlrd till nyckelharpsspelaren Magnus Holmstrm av Edward Anderzon p Eric Sahlstrminstitutets nyckelharpskurs 2001.
N: Lten lr komma frn en notsamling som r mrkt med rtalet 1814. Drav namnet.
Z: Nils L, 2008-06-06
R: Slngpolska
M: 3/4
K: G
L: 1/16
P:[A]
"G"d2c2 B4 G4 | "C"c2B2 A4 "D"D4 | "G (Em)"G2>F2 G2A2 B2c2 | "D"d2>e2 d2c2 B2c2 |
"G"d2c2 B4 G4 | "C"c2B2 A4 "D"D4 | "G (Em)"G2>F2 G2A2 "C"B2c2 | "D"A2F2 "G"G8 ::
P:[B]
"G"D2D2 D2D2 D2D2 | "C"(D2E2) E2E2 "D"E2F2 | "G (Em)"G2>A2 B2A2 G2F2 | "C"G4 "(D)"(DE)DC "D"B,2C2 |
"G"D2D2 D2D2 D2D2 | "C"(D2E2) E2E2 "D"E2F2 | "G"G2>A2 B2A2 "D"G2F2 | "G"G4 G8 :|
P:[A (last time)]
"G (tacet)"z4 d2c2 B4 | "C"c2B2 A4 "D"D4 | "G"G2>F2 G2A2 B2c2 | "C"d2>e2 d2c2 "D"B2c2 |
"G"d2c2 B4 G4 | "C"c2B2 A4 "D"D4 | "G"G2>F2 G2A2 "C"B2c2 | "D"A2F2 "G"G8 :|

